!!!!SEGMENT: pl-cz--iii-325--002_engel-jan--sinfonia-in-d-andante.krn
!!!cenid: 17xx:889
!!!COM: Engel, Jan
!!!COM-rismID: pe30009138
!!!CDT: <1772->1788
!!!CNT:
!!!OPR: Sinfonia in D
!!!OTL: Andante
!!!OMV: 002
!!!PDT:
!!!AGN: Secular
!!!SMS-siglum: PL-CZ
!!!SMS-shelfmark: III-325
!!!SMS-shelfwork: 001-002 M
!!!SMS-variant:
!!!SMS-altvar:
!!!NIFC-rismSourceID: 300000295
!!!NIFC-rismChildID: 300000295
!!!NIFC-islandoraID: pl-cz:37632
!!!URL-pdf-islandora: https://repozytorium.nifc.pl/islandora/object/pl-cz%3A37632/datastream/PDF/view
!!!URL-scan: https://polish.musicsources.pl/pl/lokalizacje/galeria/rekopisy/6902/1 @EN{Scan on Polish Music Sources Website} @PL{Skany w portalu Dziedzictwo Muzyki Polskiej w otwartym dostępie}
!!!IIIF:
!!!ONB-nifc: UWAGA: części Sinfonii: Allegro assai, Andante, Presto. Uwaga; brak partii ob i cor
!!!AIN: 1 cbass 2 cor 2 oboe 1 viola 2 violn
!!!key: d
**kern	**dynam	**kern	**dynam	**kern	**dynam	**kern	**dynam	**kern	**kern	**kern	**kern
*group3	*	*group3	*	*group3	*	*group3	*	*group2	*group2	*group1	*group1
*part8	*part8	*part7	*part7	*part6	*part6	*part5	*part5	*part4	*part3	*part2	*part1
*staff8	*	*staff7	*	*staff6	*	*staff5	*staff5	*staff4	*staff3	*staff2	*staff1
*I"Baſso	*	*I"Alto Viola	*	*I"Violino Secundo.	*	*I"Violino Primo.	*	*I"[Cornu Secondo]	*I"[Cornu Primo]	*I"[Oboe Secundo]	*I"[Oboe Primo]
*I'cb	*	*I'a-vla	*	*I'vl 2	*	*I'vl 1	*	*I'cor 2	*I'cor 1	*I'ob 2	*I'ob 1
*Icbass	*	*Iviola	*	*Ivioln	*	*Ivioln	*	*Icor	*Icor	*Ioboe	*Ioboe
*ICstr	*	*ICstr	*	*ICstr	*	*ICstr	*	*ICbras	*ICbras	*ICww	*ICww
*clefF4	*	*clefC3	*	*clefG2	*	*clefG2	*	*clefG2	*clefG2	*clefG2	*clefG2
*k[b-]	*	*k[b-]	*	*k[b-]	*	*k[b-]	*	*k[b-]	*k[b-]	*k[b-]	*k[b-]
*d:	*	*d:	*	*d:	*	*d:	*	*d:	*d:	*d:	*d:
*M2/4	*	*M2/4	*	*M2/4	*	*M2/4	*	*M2/4	*M2/4	*M2/4	*M2/4
=	=	=	=	=	=	=	=	=	=	=	=
!LO:TX:a:i:t=Andante	!	!LO:TX:a:i:t=Andante	!	!LO:TX:a:t=(And)ante	!	!LO:TX:a:t=Andante	!LO:DY:rj:t=po	!LO:TX:t=P:problem=partia zaginęła	!LO:TX:t=P:problem=partia zaginęła	!LO:TX:t=P:problem=partia zaginęła	!LO:TX:t=P:problem=partia zaginęła
16r	.	16r	.	32r	.	32a/LLL	p	16.ryy	16.ryy	16.ryy	16.ryy
.	.	.	.	16r	.	32b-/	.	.	.	.	.
32r	.	32r	.	.	.	32cc#X/JJJ	.	.	.	.	.
=1	=1	=1	=1	=1	=1	=1	=1	=1	=1	=1	=1
!	!	!	!	!	!LO:DY:b:rj:t=po.	!	!	!	!	!	!
2r	.	2r	.	2r	p	8dd/L|>	.	2ryy	2ryy	2ryy	2ryy
.	.	.	.	.	.	8a/|>	.	.	.	.	.
.	.	.	.	.	.	8f/|>	.	.	.	.	.
.	.	.	.	.	.	8d/J|>	.	.	.	.	.
=2	=2	=2	=2	=2	=2	=2	=2	=2	=2	=2	=2
.	.	.	.	8qqd/	fp	8qqf/	fp	.	.	.	.
8r	.	8r	.	4.c#X/	.	4.e/	.	2ryy	2ryy	2ryy	2ryy
!	!LO:DY:rj	!	!LO:DY:rj	!	!	!	!	!	!	!	!
8AA/L	p	4A/	p	.	.	.	.	.	.	.	.
8C#X/	.	.	.	.	.	.	.	.	.	.	.
8D/J	.	8A/	.	8f/	.	8dd\	.	.	.	.	.
=3	=3	=3	=3	=3	=3	=3	=3	=3	=3	=3	=3
4AA/	.	4A/	.	(8e/L	.	(8cc#X\L	.	2ryy	2ryy	2ryy	2ryy
.	.	.	.	8g/J)	.	8ee\J)	.	.	.	.	.
4A\	.	4a\	.	8r	.	8r	.	.	.	.	.
.	.	.	.	8e/|>	.	8g/|	.	.	.	.	.
=4	=4	=4	=4	=4	=4	=4	=4	=4	=4	=4	=4
4AA/	.	4A/	.	(8d/L	.	(8f/L	.	2ryy	2ryy	2ryy	2ryy
.	.	.	.	8c#X/J)	.	8e/J)	.	.	.	.	.
4r	.	4r	.	4r	.	8r	.	.	.	.	.
!	!	!	!	!	!	!LO:N:vis=16	!	!	!	!	!
.	.	.	.	.	.	32r	.	.	.	.	.
.	.	.	.	.	.	(32a/LLL	.	.	.	.	.
.	.	.	.	.	.	32b-/	.	.	.	.	.
.	.	.	.	.	.	32cc#X/JJJ)	.	.	.	.	.
=5	=5	=5	=5	=5	=5	=5	=5	=5	=5	=5	=5
2r	.	2r	.	2r	.	8dd/L|	.	2ryy	2ryy	2ryy	2ryy
.	.	.	.	.	.	8a/|	.	.	.	.	.
.	.	.	.	.	.	8f/|	.	.	.	.	.
.	.	.	.	.	.	8d/J|	.	.	.	.	.
=6	=6	=6	=6	=6	=6	=6	=6	=6	=6	=6	=6
.	.	.	.	8qqd/	.	8qqd/	.	.	.	.	.
*	*	*	*	*	*	*2\right	*	*	*	*	*
!	!	!	!	!	!LO:DY:t=fp&colon;	!	!	!	!	!	!
8r	.	8r	.	2g/	fp	2dd\	fp	2ryy	2ryy	2ryy	2ryy
!LO:TX:a:t=P:problem=mixed beam	!	!	!	!	!	!	!	!	!	!	!
8G\L	.	8a\	.	.	.	.	.	.	.	.	.
8E/	.	4e\	.	.	.	.	.	.	.	.	.
8C#X/J	.	.	.	.	.	.	.	.	.	.	.
!	!	!	!	!	!	!LO:LB:g=original	!	!	!	!	!
=7	=7	=7	=7	=7	=7	=7	=7	=7	=7	=7	=7
4D/	.	4A/	.	8f/|>	.	8a/|>	.	2ryy	2ryy	2ryy	2ryy
.	.	.	.	8r	.	8r	.	.	.	.	.
4AA/	.	4A/	.	8e/|>	.	8c#X/|>	.	.	.	.	.
.	.	.	.	8r	.	8r	.	.	.	.	.
!	!	!LO:LB:g=original	!	!	!	!	!	!	!	!	!
=8	=8	=8	=8	=8	=8	=8	=8	=8	=8	=8	=8
4DD/	.	4A/	.	8d/	.	8d/	.	2ryy	2ryy	2ryy	2ryy
.	.	.	.	8r;	.	8r;	.	.	.	.	.
4r	.	4r	.	8r	.	8r	.	.	.	.	.
!	!	!	!	!LO:N:vis=16	!	!LO:N:vis=16	!	!	!	!	!
.	.	.	.	8r	.	8r	.	.	.	.	.
!LO:LB:g=original	!	!	!	!LO:LB:g=original	!	!	!	!	!	!	!
=9:|!|:	=9:|!|:	=9:|!|:	=9:|!|:	=9:|!|:	=9:|!|:	=9:|!|:	=9:|!|:	=9:|!|:	=9:|!|:	=9:|!|:	=9:|!|:
!	!	!	!	!LO:TX:a:t=P:problem=takt nieczytelny [defekt źródła]	!	!LO:TX:b:i:t=mez voce	!	!	!	!	!
8r	.	8r	.	8ryy	.	8f/	.	8ryy	8ryy	8ryy	8ryy
=10	=10	=10	=10	=10	=10	=10	=10	=10	=10	=10	=10
!LO:TX:b:i:t=meZ voce	!	!LO:TX:b:i:t=mezza Voce	!	!	!	!	!	!	!	!	!
4F\	.	4f\	.	4.A/	.	4.f/	.	2ryy	2ryy	2ryy	2ryy
4F\	.	4f\	.	.	.	.	.	.	.	.	.
.	.	.	.	8f/	.	8a/	.	.	.	.	.
=11	=11	=11	=11	=11	=11	=11	=11	=11	=11	=11	=11
4F\	.	4f\	.	8.f/L	.	8.a/L	.	2ryy	2ryy	2ryy	2ryy
.	.	.	.	16a/Jk	.	16cc/Jk	.	.	.	.	.
4F\	.	4f\	.	8.g/L	.	8.b-/L	.	.	.	.	.
.	.	.	.	16f/Jk	.	16a/Jk	.	.	.	.	.
=12	=12	=12	=12	=12	=12	=12	=12	=12	=12	=12	=12
8.F/L	.	8.f/L	.	2fT/	.	2at/	.	2ryy	2ryy	2ryy	2ryy
16C/Jk	.	16c/Jk	.	.	.	.	.	.	.	.	.
8.AA/L	.	8.A/L	.	.	.	.	.	.	.	.	.
16FF/Jk	.	16F/Jk	.	.	.	.	.	.	.	.	.
=13	=13	=13	=13	=13	=13	=13	=13	=13	=13	=13	=13
4C/	.	4c\	.	4e/	.	4g/	.	2ryy	2ryy	2ryy	2ryy
4r	.	4r	.	8r	.	8r	.	.	.	.	.
.	.	.	.	8e/	.	8g/	.	.	.	.	.
=14	=14	=14	=14	=14	=14	=14	=14	=14	=14	=14	=14
4C/	.	4c\	.	4.e/	.	4.g/	.	2ryy	2ryy	2ryy	2ryy
4C/	.	4c\	.	.	.	.	.	.	.	.	.
.	.	.	.	8g/	.	8b-\	.	.	.	.	.
!	!	!	!	!	!	!LO:LB:g=original	!	!	!	!	!
=15	=15	=15	=15	=15	=15	=15	=15	=15	=15	=15	=15
4C/	.	4c\	.	8.g/L	.	8.b-\L	.	2ryy	2ryy	2ryy	2ryy
.	.	.	.	16b-/Jk	.	16dd\Jk	.	.	.	.	.
4C/	.	4c\	.	8.a/L	.	8.cc\L	.	.	.	.	.
.	.	.	.	16g/Jk	.	16b-\Jk	.	.	.	.	.
=16	=16	=16	=16	=16	=16	=16	=16	=16	=16	=16	=16
8.c\L	.	8.cc\L	.	2gT/	.	2b-T/	.	2ryy	2ryy	2ryy	2ryy
16G\Jk	.	16g\Jk	.	.	.	.	.	.	.	.	.
8.E/L	.	8.e\L	.	.	.	.	.	.	.	.	.
16C/Jk	.	16c\Jk	.	.	.	.	.	.	.	.	.
!	!	!LO:LB:g=original	!	!	!	!	!	!	!	!	!
=17	=17	=17	=17	=17	=17	=17	=17	=17	=17	=17	=17
4F\	.	4f\	.	4f/	.	4a/	.	2ryy	2ryy	2ryy	2ryy
4r	.	4r	.	4r	.	8r	.	.	.	.	.
.	.	.	.	.	.	8cc\	.	.	.	.	.
!LO:LB:g=original	!	!	!	!	!	!	!	!	!	!	!
=18	=18	=18	=18	=18	=18	=18	=18	=18	=18	=18	=18
4r	.	8r	.	8r	.	8cc\L	.	2ryy	2ryy	2ryy	2ryy
!	!	!	!	!	!	!LO:TUP:a	!	!	!	!	!
.	.	(8A/L	.	(8f/L	.	24ff\L	.	.	.	.	.
.	.	.	.	.	.	24ee\	.	.	.	.	.
.	.	.	.	.	.	24dd\JJ	.	.	.	.	.
8r	.	8e/	.	8g/	.	8cc\L|	.	.	.	.	.
8F\	.	8f/J)	.	8a/J)	.	8cc\J|	.	.	.	.	.
=19	=19	=19	=19	=19	=19	=19	=19	=19	=19	=19	=19
*2\right	*	*2\right	*	*	*	*	*	*	*	*	*
!	!	!	!	!	!LO:DY:t=fp&colon;	!	!	!	!	!	!
2E\	.	2g\	fp	2b-/	fp	2cc\	fp	2ryy	2ryy	2ryy	2ryy
!	!	!	!	!LO:LB:g=original	!	!	!	!	!	!	!
=20	=20	=20	=20	=20	=20	=20	=20	=20	=20	=20	=20
!	!	!	!	!LO:TX:a:t=P:problem=takt nieczytelny [defekt źródła]	!	!	!	!	!	!	!
4r	.	8r	.	4ryy	.	8cc\L	.	2ryy	2ryy	2ryy	2ryy
!	!	!	!	!	!	!LO:TUP:a	!	!	!	!	!
.	.	(8A/L	.	.	.	24ff\L	.	.	.	.	.
.	.	.	.	.	.	24ee\	.	.	.	.	.
.	.	.	.	.	.	24dd\JJ	.	.	.	.	.
8r	.	8e/	.	8ryy	.	8cc\L|	.	.	.	.	.
8F\	.	8f/J)	.	8a/	.	8cc\J|	.	.	.	.	.
=21	=21	=21	=21	=21	=21	=21	=21	=21	=21	=21	=21
*	*	*	*	*	*	*^	*	*	*	*	*
!	!	!	!	!	!	!	!	!LO:DY:t=f&colon;	!	!	!	!
2E\	.	2g\	fp	2b-/	fp	2cc\	4ryy	f	2ryy	2ryy	2ryy	2ryy
!	!	!	!	!	!	!	!	!LO:DY:t=p&colon;	!	!	!	!
.	.	.	.	.	.	.	4ryy	p	.	.	.	.
*	*	*	*	*	*	*v	*v	*	*	*	*	*
!	!	!	!	!	!	!LO:LB:g=original	!	!	!	!	!
=22	=22	=22	=22	=22	=22	=22	=22	=22	=22	=22	=22
4F\	.	4f\	.	(8a/L	.	(8cc#X\L	.	2ryy	2ryy	2ryy	2ryy
.	.	.	.	8b-/J)	.	8dd\J)	.	.	.	.	.
4C/	.	(8G/L	.	(8e/L	.	(8e/L	.	.	.	.	.
.	.	8B-/J)	.	8g/J)	.	8g/J)	.	.	.	.	.
=23	=23	=23	=23	=23	=23	=23	=23	=23	=23	=23	=23
.	.	.	.	8qqg/	.	8qqg/	.	.	.	.	.
4FF/	.	4A/	.	4f/	.	4f/	.	2ryy	2ryy	2ryy	2ryy
!	!	!	!	!	!	!LO:N:vis=8	!	!	!	!	!
4r	.	4r	.	8r	.	16r	.	.	.	.	.
!	!	!	!	!	!	!LO:N:vis=8	!	!	!	!	!
.	.	.	.	.	.	16r	.	.	.	.	.
!	!	!	!	!LO:TX:a:t=P:problem=kreska taktowa podwójna	!	!LO:TX:a:t=P:problem=kreska taktowa podwójna	!	!	!	!	!
!	!	!	!	!LO:TX:b:i:t=Da Capo	!	!LO:TX:b:i:t=Da Capo	!	!	!	!	!
.	.	.	.	32r	.	32r	.	.	.	.	.
!	!	!	!	!	!	!	!LO:DY:rj:t=po	!	!	!	!
.	.	.	.	32ryy	.	32a/LLLyy	py	.	.	.	.
.	.	.	.	16ryy	.	32b-/yy	.	.	.	.	.
.	.	.	.	.	.	32cc#X/JJJyy	.	.	.	.	.
=24	=24	=24	=24	=24	=24	=24	=24	=24	=24	=24	=24
!	!	!	!	!	!LO:DY:rj:t=po.	!	!	!	!	!	!
2r	.	2r	.	2ryy	py	8dd/L|>yy	.	2ryy	2ryy	2ryy	2ryy
.	.	.	.	.	.	8a/|>yy	.	.	.	.	.
.	.	.	.	.	.	8f/|>yy	.	.	.	.	.
.	.	.	.	.	.	8d/J|>yy	.	.	.	.	.
=25	=25	=25	=25	=25	=25	=25	=25	=25	=25	=25	=25
.	.	.	.	8qqd/yy	fpy	8qqf/yy	fpy	.	.	.	.
8r	.	8r	.	4.c#X/yy	.	4.e/yy	.	2ryy	2ryy	2ryy	2ryy
!	!LO:DY:rj	!	!LO:DY:rj	!	!	!	!	!	!	!	!
8AA/L	p	4A/	p	.	.	.	.	.	.	.	.
8C#X/	.	.	.	.	.	.	.	.	.	.	.
8D/J	.	8A/	.	8f/yy	.	8dd\yy	.	.	.	.	.
!LO:LB:g=original	!	!LO:LB:g=original	!	!	!	!	!	!	!	!	!
=26	=26	=26	=26	=26	=26	=26	=26	=26	=26	=26	=26
4AA/	.	4A/	.	(y8e/Lyy	.	(y8cc#X\Lyy	.	2ryy	2ryy	2ryy	2ryy
.	.	.	.	8g/J)yy	.	8ee\J)yy	.	.	.	.	.
4A\	.	4a\	.	8ryy	.	8ryy	.	.	.	.	.
.	.	.	.	8e/|>yy	.	8g/|yy	.	.	.	.	.
=27	=27	=27	=27	=27	=27	=27	=27	=27	=27	=27	=27
4AA/	.	4A/	.	(y8d/Lyy	.	(y8f/Lyy	.	2ryy	2ryy	2ryy	2ryy
.	.	.	.	8c#X/J)yy	.	8e/J)yy	.	.	.	.	.
4r	.	4r	.	4ryy	.	8ryy	.	.	.	.	.
!	!	!	!	!	!	!LO:N:vis=16	!	!	!	!	!
.	.	.	.	.	.	32ryy	.	.	.	.	.
.	.	.	.	.	.	(y32a/LLLyy	.	.	.	.	.
.	.	.	.	.	.	32b-/yy	.	.	.	.	.
.	.	.	.	.	.	32cc#X/JJJ)yy	.	.	.	.	.
=28	=28	=28	=28	=28	=28	=28	=28	=28	=28	=28	=28
2r	.	2r	.	2ryy	.	8dd/L|yy	.	2ryy	2ryy	2ryy	2ryy
.	.	.	.	.	.	8a/|yy	.	.	.	.	.
.	.	.	.	.	.	8f/|yy	.	.	.	.	.
.	.	.	.	.	.	8d/J|yy	.	.	.	.	.
=29	=29	=29	=29	=29	=29	=29	=29	=29	=29	=29	=29
.	.	.	.	8qqd/yy	.	8qqd/yy	.	.	.	.	.
*	*	*	*	*	*	*2\right	*	*	*	*	*
!	!	!	!	!	!LO:DY:t=fp&colon;	!	!	!	!	!	!
8r	.	8r	.	2g/yy	fpy	2dd\yy	fpy	2ryy	2ryy	2ryy	2ryy
8G/L	.	8a\	.	.	.	.	.	.	.	.	.
8E/	.	4e\	.	.	.	.	.	.	.	.	.
8C#X/J	.	.	.	.	.	.	.	.	.	.	.
!	!	!	!	!	!	!LO:LB:g=original	!	!	!	!	!
=30	=30	=30	=30	=30	=30	=30	=30	=30	=30	=30	=30
4D/	.	4A/	.	8f/|>yy	.	8a/|>yy	.	2ryy	2ryy	2ryy	2ryy
.	.	.	.	8ryy	.	8ryy	.	.	.	.	.
4AA/	.	4A/	.	8e/|>yy	.	8c#X/|>yy	.	.	.	.	.
.	.	.	.	8ryy	.	8ryy	.	.	.	.	.
=31	=31	=31	=31	=31	=31	=31	=31	=31	=31	=31	=31
4DD/	.	4A/	.	8d/yy	.	8d/yy	.	2ryy	2ryy	2ryy	2ryy
.	.	.	.	8r;yy	.	8r;yy	.	.	.	.	.
4r	.	4r	.	8ryy	.	8ryy	.	.	.	.	.
!	!	!	!	!LO:N:vis=16	!	!LO:N:vis=16	!	!	!	!	!
.	.	.	.	8ryy	.	8ryy	.	.	.	.	.
==	==	==	==	==	==	==	==	==	==	==	==
*-	*-	*-	*-	*-	*-	*-	*-	*-	*-	*-	*-
!!!system-decoration: [(g1)][(g2)][(g3)]
!!!RDF**kern: > = above
!!!RDF**kern: | = vertical stroke
!!!ENC: Andrzej Kubiczek
!!!END: 2020-07-19
!!!ENC: Marta Lawrence
!!!END: 2022-03-08
!!!YEC: Copyright 2022 Narodowy Instytut Fryderyka Chopina (https://polishscores.org)
!!!YEM: License CC-BY-4.0 (https://creativecommons.org/licenses/by/4.0)
